packages/sources/icons/src/vitamix/decathlon_card.svg

<svg width="24" height="24" viewBox="0 0 24 24" fill="none" xmlns="http://www.w3.org/2000/svg">
<path fill-rule="evenodd" clip-rule="evenodd" d="M7.2244 11.8363V12.5935H8.31671V12.1752H7.71582V11.8293L8.23643 11.8288V11.4189L7.71582 11.4194V11.1077L8.31671 11.1072V10.6875H7.2244V11.4514C7.23422 11.5142 7.23919 11.5803 7.23919 11.6495C7.23919 11.7144 7.23425 11.7767 7.2244 11.8363ZM16.8919 11.9393V11.3358C16.844 11.1858 16.7585 11.0474 16.6378 10.9295C16.449 10.7463 16.2043 10.6466 15.9459 10.6466C15.6705 10.6466 15.4311 10.7409 15.2409 10.927C15.0497 11.1127 14.947 11.356 14.947 11.6203C14.947 11.8295 14.9974 12.0133 15.0969 12.1723H15.2285V12.3396C15.4182 12.5345 15.6604 12.6346 15.943 12.6346C16.213 12.6346 16.469 12.5291 16.6568 12.3351C16.767 12.2227 16.8463 12.0886 16.8919 11.9393ZM15.0969 12.1723H14.6559V10.687H14.1674V12.5939H15.2286V12.3395C15.2262 12.3371 15.2238 12.3346 15.2214 12.3322C15.1738 12.282 15.1322 12.2287 15.0969 12.1723ZM4.5 13.4979V9.75H19.5V13.4979H4.5ZM10.5598 10.6851C10.5598 10.6851 9.92776 11.76 9.86597 11.8568C9.79396 11.9706 9.6368 12.1509 9.39985 12.1484C9.01353 12.1421 8.86805 11.8758 8.86805 11.6359C8.86805 11.3638 9.08505 11.1297 9.3692 11.1244C9.68984 11.118 9.92922 11.4248 9.92922 11.4248L10.1798 11.0208C10.1798 11.0208 9.89565 10.6353 9.37407 10.647C8.58829 10.6646 8.35961 11.3222 8.35961 11.6271C8.35961 12.2691 8.85443 12.5896 9.25827 12.6287C9.8397 12.6849 10.1579 12.3053 10.1579 12.3053C10.1579 12.3053 10.154 12.3043 10.174 12.3038C10.2912 12.3028 10.6002 12.3053 10.6002 12.3053V12.5911H11.0731V10.6851H10.5598ZM10.6104 11.9066H10.3569L10.6104 11.4747V11.9066ZM11.5573 12.5944H12.0482V11.1423H12.4292V10.6865H11.1758V11.1423H11.5573V12.5944ZM13.5264 11.8643V12.5943H14.0178V10.6868H13.5264V11.4109H13.0214V10.6868H12.5304V12.5943H13.0214V11.8643H13.5264ZM15.943 12.1592C15.6764 12.1592 15.4341 11.9281 15.4341 11.6257C15.4341 11.3453 15.6603 11.121 15.9488 11.121C16.2208 11.121 16.4471 11.3453 16.4471 11.6257C16.4471 11.9384 16.2208 12.1592 15.943 12.1592ZM16.8918 11.9393V12.5941H17.3837V11.5315L18.133 12.5941H18.5646V10.6867H18.0732V11.746L17.3356 10.6867H16.8918V11.3358C16.9217 11.4294 16.937 11.5276 16.937 11.6281C16.937 11.7372 16.9217 11.8415 16.8918 11.9393ZM7.22451 11.8363V11.4514C7.18984 11.2295 7.09482 11.0484 6.94542 10.9147C6.73669 10.7271 6.51434 10.687 6.19516 10.687H5.50912V12.594H6.2623C6.5445 12.594 6.73377 12.5564 6.94785 12.358C7.0974 12.2181 7.19038 12.0431 7.22451 11.8363ZM6.75075 11.6339C6.75075 12.0091 6.57316 12.1752 6.19705 12.1752H6V11.0969H6.19511C6.55613 11.0969 6.75075 11.2904 6.75075 11.6339ZM3 6V17.25H21V6H3ZM3 4.5H21C21.8284 4.5 22.5 5.17157 22.5 6V17.25C22.5 18.0784 21.8284 18.75 21 18.75H3C2.17157 18.75 1.5 18.0784 1.5 17.25V6C1.5 5.17157 2.17157 4.5 3 4.5Z" fill="#001018"/>
</svg>

<svg width="24" height="24" fill="none" xmlns="http://www.w3.org/2000/svg"><path fill-rule="evenodd" clip-rule="evenodd" d="M7.224 11.836v.758h1.093v-.419h-.601v-.346h.52v-.41h-.52v-.311h.6v-.42H7.225v.763a1.282 1.282 0 0 1 0 .385zm9.668.103v-.603a.987.987 0 0 0-.254-.406.987.987 0 0 0-.692-.283.977.977 0 0 0-.705.28.953.953 0 0 0-.294.693c0 .21.05.393.15.552h.132v.168c.19.194.431.295.714.295a.987.987 0 0 0 .949-.696zm-1.795.233h-.441v-1.485h-.489v1.907h1.062v-.255l-.008-.007a1.015 1.015 0 0 1-.124-.16zM4.5 13.498V9.75h15v3.748h-15zm6.06-2.813s-.632 1.075-.694 1.172c-.072.114-.23.294-.466.291-.386-.006-.532-.272-.532-.512 0-.272.217-.506.501-.512.32-.006.56.3.56.3l.25-.403s-.283-.386-.805-.374c-.786.018-1.014.675-1.014.98 0 .642.494.963.898 1.002.582.056.9-.324.9-.324l.016-.001c.117-.001.426.001.426.001v.286h.473v-1.906h-.513zm.05 1.222h-.253l.253-.432v.432zm.947.687h.491v-1.452h.381v-.455h-1.253v.455h.381v1.452zm1.97-.73v.73h.49v-1.907h-.49v.724h-.506v-.724h-.49v1.907h.49v-.73h.505zm2.416.295a.526.526 0 0 1-.509-.533.506.506 0 0 1 1.013 0c0 .312-.226.533-.504.533zm.949-.22v.655h.492v-1.063l.749 1.063h.432v-1.907h-.492v1.059l-.737-1.06h-.444v.65a1.054 1.054 0 0 1 0 .603zm-9.667-.103v-.385a.882.882 0 0 0-.28-.536c-.208-.188-.43-.228-.75-.228H5.51v1.907h.753c.283 0 .472-.038.686-.236a.897.897 0 0 0 .277-.522zm-.474-.202c0 .375-.178.541-.554.541H6v-1.078h.195c.361 0 .556.193.556.537zM3 6v11.25h18V6H3zm0-1.5h18A1.5 1.5 0 0 1 22.5 6v11.25a1.5 1.5 0 0 1-1.5 1.5H3a1.5 1.5 0 0 1-1.5-1.5V6A1.5 1.5 0 0 1 3 4.5z" fill="#001018"/></svg>
